X: 21001
T: Julia Delaney's
R: reel
M: 4/4
K: Edorian
|:B|edBA G2 EG|F2 DF GEEB|edBA GEEA|Bee^d efgf|
edBA GEEG|FDDF GEEB|edBA GEEA|1 Bee^d e3:|2 Bee^d e2ef||
|:g2gf gbag|f2 af bfaf|gfef gbag|fed=c Beef|
g2gf gbag|f2 af bfaf|gfeg fed=c|1 Bee^d e2ef:|2 Bee^d e3||

